!! 00013] TT[TB
!! Zh. CH.  M-119, M-33/257), MZ67)
!!!OTL: Dawo ge
!!!ARE: Asia, China,ÿHunan, Changde
!! Ethnic Group: Han
!! I, 514
!!!SCT: C0052
!!!YEM: Copyright 1995, estate of Helmut Schaffrath.
**kern
*ICvox
*Ivox
*M2/4
*k[b-e-]
*B-:
{16.ddd
32ddd
16ddd
16ccc
8.bb-
16g
=1
8.bb-
16gg
8.ff}
{16ddd
=2
16fff
16ddd
16ddd
16ccc
16bb-
16bb-
16bb-
16gg
=3
8.bb-
16gg
8ff}
{16bb-
16gg
=4
16bb-
16bb-
8gg
16ddd
16ddd
16ccc
16gg
=5
8.bb-
16gg
8.ff}
{16ddd
=6
16fff
16ddd
16ddd
16bb-
16ccc
16ccc
8ddd}
=7
{16.bb-
32bb-
16bb-
16ccc
16ddd
16ccc
8ddd
=8
16gg
16bb-
8gg
16fff
16ddd
8ddd}
=9
{4ccc
8.ccc
32ddd
32bb-
=10
16.ddd
32ddd
16ddd
16ccc
16bb-
16r
8ccc
=11
8.bb-
16gg
8.ff}
{16ddd
=12
16.bb-
32bb-
16bb-
16ccc
16ddd
16ccc
16ddd
16bb-
=13
4ccc
8.ccc
16r}
==
!!!AGN: Haozi, Dawo haozi. Zhudi, zaofang shi chang. Tongyi dongzuo
!! neues Volkslied. Vermutlich leichte Variante. Noten schwer
!!    zu verfolgen. Foto der Plattenhuelle: 4'14:20
!!    Das Vorspiel zur ersten Strophe wird auf Fuellwoerter gesungen:
!!    +3_.+3+3_+2_+1__.6_  +1__.6_5__.     Die Pause im letzten Takt des
!!    Liedes ist in der Vorlage als +3_ notiert.
!!    Die sechste Strophe endet statt des letzten Taktes ~
!!    +2___+2___  x__x_x_x__x_x_ //
!!    Wenig Verzierungen.
!!!ONB: ESAC (Essen Associative Code) Database: CHINA
!!!AMT: simple duple
!!!AIN: vox
!!!EED: Helmut Schaffrath
!!!EEV: 1.0
*-
